;FLAVOR:Marlin
;TIME:4432
;Filament used: 3.36369m
;Layer height: 0.15
;MINX:80.653
;MINY:34.608
;MINZ:0.2
;MAXX:157.853
;MAXY:85.083
;MAXZ:8
;TARGET_MACHINE.NAME:Prusa i3 Mk3/Mk3s
;Generated with Cura_SteamEngine 5.9.0
M82 ;absolute extrusion mode
G21 ; set units to millimeters
G90 ; use absolute positioning
M82 ; absolute extrusion mode
M104 S212.0 ; set extruder temp
M140 S60 ; set bed temp
M190 S60 ; wait for bed temp
M109 S212.0 ; wait for extruder temp
G28 W ; home all without mesh bed level
G80 ; mesh bed leveling
G92 E0.0 ; reset extruder distance position
G1 Y-3.0 F1000.0 ; go outside print area
G1 X60.0 E9.0 F1000.0 ; intro line
G1 X100.0 E21.5 F1000.0 ; intro line
G92 E0.0 ; reset extruder distance position
G92 E0
G92 E0
G1 F2100 E-0.8
;LAYER_COUNT:53
;LAYER:0
M107
G0 F3600 X84.914 Y85.083 Z0.2
;TYPE:SKIRT
G1 F2100 E0
G1 F1800 X84.216 Y85.074 E0.02322
G1 X83.618 Y85.015 E0.0432
G1 X83.068 Y84.869 E0.06213
G1 X82.548 Y84.638 E0.08106
G1 X82.072 Y84.33 E0.09991
G1 X81.649 Y83.949 E0.11885
G1 X81.292 Y83.506 E0.13777
G1 X81.009 Y83.014 E0.15665
G1 X80.807 Y82.482 E0.17558
G1 X80.692 Y81.936 E0.19413
G1 X80.655 Y81.483 E0.20925
G1 X80.653 Y77.447 E0.34349
G1 X80.67 Y76.508 E0.37472
G1 X80.903 Y74.685 E0.43585
G1 X81.211 Y71.902 E0.52898
G1 X81.432 Y69.21 E0.61882
G1 X81.577 Y66.51 E0.70875
G1 X81.653 Y62.679 E0.83619
G1 X81.653 Y56.983 E1.02564
G1 X81.613 Y54.192 E1.11848
G1 X81.498 Y51.486 E1.20856
G1 X81.304 Y48.75 E1.29979
G1 X81.036 Y46.046 E1.39017
G1 X80.692 Y43.345 E1.48073
G1 X80.655 Y42.655 E1.50371
G1 X80.653 Y38.834 E1.6308
G1 X80.662 Y38.169 E1.65292
G1 X80.722 Y37.57 E1.67294
G1 X80.868 Y37.022 E1.6918
G1 X81.098 Y36.503 E1.71069
G1 X81.408 Y36.025 E1.72963
G1 X81.788 Y35.603 E1.74852
G1 X82.231 Y35.246 E1.76745
G1 X82.724 Y34.963 E1.78635
G1 X83.195 Y34.779 E1.80317
G1 X83.802 Y34.647 E1.82383
G1 X84.247 Y34.61 E1.83868
G1 X153.598 Y34.608 E4.14531
G1 X154.296 Y34.618 E4.16853
G1 X154.893 Y34.678 E4.18848
G1 X155.443 Y34.824 E4.20741
G1 X155.907 Y35.026 E4.22424
G1 X156.388 Y35.328 E4.24313
G1 X156.861 Y35.747 E4.26415
G1 X157.216 Y36.189 E4.283
G1 X157.499 Y36.683 E4.30194
G1 X157.7 Y37.214 E4.32082
G1 X157.815 Y37.771 E4.33974
G1 X157.852 Y38.448 E4.36229
G1 X157.853 Y42.244 E4.48854
G1 X157.836 Y43.183 E4.51978
G1 X157.603 Y45.003 E4.58081
G1 X157.295 Y47.789 E4.67404
G1 X157.074 Y50.481 E4.76387
G1 X156.929 Y53.181 E4.85381
G1 X156.853 Y57.012 E4.98125
G1 X156.853 Y62.708 E5.1707
G1 X156.893 Y65.488 E5.26317
G1 X157.008 Y68.205 E5.35362
G1 X157.201 Y70.929 E5.44445
G1 X157.469 Y73.634 E5.53486
G1 X157.814 Y76.345 E5.62575
G1 X157.851 Y77.036 E5.64877
G1 X157.853 Y80.792 E5.77369
G1 X157.844 Y81.519 E5.79788
G1 X157.786 Y82.116 E5.81783
G1 X157.64 Y82.666 E5.83675
G1 X157.41 Y83.185 E5.85563
G1 X157.101 Y83.663 E5.87456
G1 X156.72 Y84.086 E5.8935
G1 X156.279 Y84.443 E5.91237
G1 X155.785 Y84.727 E5.93132
G1 X155.254 Y84.928 E5.95021
G1 X154.76 Y85.036 E5.96703
G1 X154.013 Y85.082 E5.99192
G1 X84.914 Y85.083 E8.29016
G0 F3600 X84.919 Y84.683
G1 F1800 X84.221 Y84.674 E8.31338
G1 X83.717 Y84.627 E8.33021
G1 X83.227 Y84.502 E8.34703
G1 X82.763 Y84.301 E8.36385
G1 X82.337 Y84.03 E8.38064
G1 X81.958 Y83.695 E8.39747
G1 X81.637 Y83.304 E8.41429
G1 X81.382 Y82.868 E8.43109
G1 X81.198 Y82.397 E8.44791
G1 X81.091 Y81.903 E8.46472
G1 X81.054 Y81.45 E8.47984
G1 X81.053 Y77.453 E8.61278
G1 X81.067 Y76.559 E8.64252
G1 X81.3 Y74.736 E8.70365
G1 X81.609 Y71.946 E8.79701
G1 X81.83 Y69.243 E8.88721
G1 X81.977 Y66.518 E8.97798
G1 X82.053 Y62.687 E9.10542
G1 X82.053 Y56.983 E9.29514
G1 X82.013 Y54.186 E9.38818
G1 X81.898 Y51.469 E9.47862
G1 X81.703 Y48.722 E9.57022
G1 X81.434 Y46.007 E9.66096
G1 X81.089 Y43.295 E9.75189
G1 X81.055 Y42.655 E9.77321
G1 X81.053 Y38.839 E9.90013
G1 X81.062 Y38.174 E9.92225
G1 X81.109 Y37.67 E9.93908
G1 X81.235 Y37.181 E9.95588
G1 X81.436 Y36.717 E9.9727
G1 X81.707 Y36.29 E9.98952
G1 X82.042 Y35.912 E10.00632
G1 X82.433 Y35.591 E10.02314
G1 X82.87 Y35.336 E10.03997
G1 X83.341 Y35.152 E10.05679
G1 X83.835 Y35.046 E10.0736
G1 X84.28 Y35.009 E10.08845
G1 X153.592 Y35.008 E12.39377
G1 X154.29 Y35.018 E12.41699
G1 X154.793 Y35.065 E12.43379
G1 X155.283 Y35.191 E12.45062
G1 X155.747 Y35.393 E12.46745
G1 X156.173 Y35.665 E12.48426
G1 X156.551 Y36 E12.50106
G1 X156.871 Y36.391 E12.51787
G1 X157.126 Y36.828 E12.5347
G1 X157.309 Y37.299 E12.5515
G1 X157.416 Y37.793 E12.56831
G1 X157.452 Y38.448 E12.59013
G1 X157.453 Y42.238 E12.71619
G1 X157.439 Y43.132 E12.74593
G1 X157.206 Y44.952 E12.80695
G1 X156.897 Y47.745 E12.90042
G1 X156.676 Y50.448 E12.99062
G1 X156.529 Y53.173 E13.08138
G1 X156.453 Y57.004 E13.20883
G1 X156.453 Y62.708 E13.39855
G1 X156.493 Y65.505 E13.49158
G1 X156.608 Y68.222 E13.58203
G1 X156.803 Y70.968 E13.67359
G1 X157.072 Y73.684 E13.76437
G1 X157.417 Y76.395 E13.85527
G1 X157.451 Y77.036 E13.87662
G1 X157.453 Y80.787 E14.00137
G1 X157.444 Y81.514 E14.02556
G1 X157.398 Y82.017 E14.04236
G1 X157.273 Y82.507 E14.05918
G1 X157.072 Y82.971 E14.07599
G1 X156.801 Y83.398 E14.09282
G1 X156.466 Y83.777 E14.10964
G1 X156.076 Y84.098 E14.12644
G1 X155.64 Y84.354 E14.14326
G1 X155.169 Y84.537 E14.16006
G1 X154.675 Y84.645 E14.17688
G1 X154.013 Y84.682 E14.19893
G1 X84.919 Y84.683 E16.49701
G1 F2100 E15.69701
G0 F3600 X84.6 Y77.136
G0 X84.453 Y42.308
G1 F2100 E16.49701
G1 F1800 X84.453 Y38.408 E16.62672
G1 X154.053 Y38.408 E18.94163
G1 X154.053 Y42.308 E19.07134
G1 X84.453 Y42.308 E21.38625
G0 F3600 X84.853 Y41.908
G1 F1800 X84.853 Y38.808 E21.48936
G1 X153.653 Y38.808 E23.77765
G1 X153.653 Y41.908 E23.88076
G1 X84.853 Y41.908 E26.16906
G0 F3600 X85.253 Y41.508
G1 F1800 X85.253 Y39.208 E26.24555
G1 X153.253 Y39.208 E28.50724
G1 X153.253 Y41.508 E28.58374
G1 X85.253 Y41.508 E30.84543
G1 F2100 E30.04543
G0 F3600 X84.6 Y42.555
G0 X84.6 Y77.136
G0 X85.253 Y80.483
G1 F2100 E30.84543
G1 F1800 X85.253 Y78.183 E30.92193
G1 X153.253 Y78.183 E33.18362
G1 X153.253 Y80.483 E33.26012
G1 X85.253 Y80.483 E35.52181
G0 F3600 X84.853 Y80.883
G1 F1800 X84.853 Y77.783 E35.62491
G1 X153.653 Y77.783 E37.91321
G1 X153.653 Y80.883 E38.01632
G1 X84.853 Y80.883 E40.30461
G0 F3600 X84.453 Y81.283
G1 F1800 X84.453 Y77.383 E40.43433
G1 X154.053 Y77.383 E42.74923
G1 X154.053 Y81.283 E42.87895
G1 X84.453 Y81.283 E45.19385
G1 F2100 E44.39385
G0 F3600 X85.652 Y80.08
;TYPE:SUPPORT
G1 F2100 E45.19385
G1 F1800 X85.652 Y78.58 E45.24374
G1 X152.852 Y78.58 E47.47882
G1 X152.852 Y80.08 E47.52872
G1 X85.652 Y80.08 E49.7638
G1 F2100 E48.9638
G0 F3600 X88.011 Y79.92
G1 F2100 E49.7638
G1 F1800 X88.011 Y78.74 E49.80304
G1 F2100 E49.00304
G0 F3600 X90.678 Y78.74
G1 F2100 E49.80304
G1 F1800 X90.678 Y79.92 E49.84229
G1 F2100 E49.04229
G0 F3600 X93.345 Y79.92
G1 F2100 E49.84229
G1 F1800 X93.345 Y78.74 E49.88154
G1 F2100 E49.08154
G0 F3600 X96.012 Y78.74
G1 F2100 E49.88154
G1 F1800 X96.012 Y79.92 E49.92078
G1 F2100 E49.12078
G0 F3600 X98.679 Y79.92
G1 F2100 E49.92078
G1 F1800 X98.679 Y78.74 E49.96003
G1 F2100 E49.16003
G0 F3600 X101.346 Y78.74
G1 F2100 E49.96003
G1 F1800 X101.346 Y79.92 E49.99928
G1 F2100 E49.19928
G0 F3600 X104.013 Y79.92
G1 F2100 E49.99928
G1 F1800 X104.013 Y78.74 E50.03852
G1 F2100 E49.23852
G0 F3600 X106.68 Y78.74
G1 F2100 E50.03852
G1 F1800 X106.68 Y79.92 E50.07777
G1 F2100 E49.27777
G0 F3600 X109.347 Y79.92
G1 F2100 E50.07777
G1 F1800 X109.347 Y78.74 E50.11702
G1 F2100 E49.31702
G0 F3600 X112.014 Y78.74
G1 F2100 E50.11702
G1 F1800 X112.014 Y79.92 E50.15627
G1 F2100 E49.35627
G0 F3600 X114.681 Y79.92
G1 F2100 E50.15627
G1 F1800 X114.681 Y78.74 E50.19551
G1 F2100 E49.39551
G0 F3600 X117.348 Y78.74
G1 F2100 E50.19551
G1 F1800 X117.348 Y79.92 E50.23476
G1 F2100 E49.43476
G0 F3600 X120.015 Y79.92
G1 F2100 E50.23476
G1 F1800 X120.015 Y78.74 E50.27401
G1 F2100 E49.47401
G0 F3600 X122.682 Y78.74
G1 F2100 E50.27401
G1 F1800 X122.682 Y79.92 E50.31325
G1 F2100 E49.51325
G0 F3600 X125.349 Y79.92
G1 F2100 E50.31325
G1 F1800 X125.349 Y78.74 E50.3525
G1 F2100 E49.5525
G0 F3600 X128.016 Y78.74
G1 F2100 E50.3525
G1 F1800 X128.016 Y79.92 E50.39175
G1 F2100 E49.59175
G0 F3600 X130.683 Y79.92
G1 F2100 E50.39175
G1 F1800 X130.683 Y78.74 E50.43099
G1 F2100 E49.63099
G0 F3600 X133.35 Y78.74
G1 F2100 E50.43099
G1 F1800 X133.35 Y79.92 E50.47024
G1 F2100 E49.67024
G0 F3600 X136.017 Y79.92
G1 F2100 E50.47024
G1 F1800 X136.017 Y78.74 E50.50949
G1 F2100 E49.70949
G0 F3600 X138.684 Y78.74
G1 F2100 E50.50949
G1 F1800 X138.684 Y79.92 E50.54874
G1 F2100 E49.74874
G0 F3600 X141.351 Y79.92
G1 F2100 E50.54874
G1 F1800 X141.351 Y78.74 E50.58798
G1 F2100 E49.78798
G0 F3600 X144.018 Y78.74
G1 F2100 E50.58798
G1 F1800 X144.018 Y79.92 E50.62723
G1 F2100 E49.82723
G0 F3600 X146.685 Y79.92
G1 F2100 E50.62723
G1 F1800 X146.685 Y78.74 E50.66648
G1 F2100 E49.86648
G0 F3600 X149.352 Y78.74
G1 F2100 E50.66648
G1 F1800 X149.352 Y79.92 E50.70572
G1 F2100 E49.90572
G0 F3600 X152.019 Y79.92
G1 F2100 E50.70572
G1 F1800 X152.019 Y78.74 E50.74497
G1 F2100 E49.94497
G0 F3600 X153.906 Y77.136
G0 X153.906 Y42.555
G0 X152.019 Y41.108
G1 F2100 E50.74497
G1 F1800 X85.652 Y41.108 E52.95235
G1 X85.652 Y39.608 E53.00224
G1 X152.852 Y39.608 E55.23732
G1 X152.852 Y41.108 E55.28721
G1 X152.019 Y41.108 E55.31491
G1 X152.019 Y40.948
G1 X152.019 Y39.768 E55.35416
G0 F3600 X152.692 Y40.005
G1 F1800 X85.812 Y40.005 E57.5786
G1 F2100 E56.7786
G0 F3600 X88.011 Y39.768
G1 F2100 E57.5786
G1 F1800 X88.011 Y40.948 E57.61784
G1 F2100 E56.81784
G0 F3600 X90.678 Y40.948
G1 F2100 E57.61784
G1 F1800 X90.678 Y39.768 E57.65709
G1 F2100 E56.85709
G0 F3600 X93.345 Y39.768
G1 F2100 E57.65709
G1 F1800 X93.345 Y40.948 E57.69634
G1 F2100 E56.89634
G0 F3600 X96.012 Y40.948
G1 F2100 E57.69634
G1 F1800 X96.012 Y39.768 E57.73559
G1 F2100 E56.93559
G0 F3600 X98.679 Y39.768
G1 F2100 E57.73559
G1 F1800 X98.679 Y40.948 E57.77483
G1 F2100 E56.97483
G0 F3600 X101.346 Y40.948
G1 F2100 E57.77483
G1 F1800 X101.346 Y39.768 E57.81408
G1 F2100 E57.01408
G0 F3600 X104.013 Y39.768
G1 F2100 E57.81408
G1 F1800 X104.013 Y40.948 E57.85333
G1 F2100 E57.05333
G0 F3600 X106.68 Y40.948
G1 F2100 E57.85333
G1 F1800 X106.68 Y39.768 E57.89257
G1 F2100 E57.09257
G0 F3600 X109.347 Y39.768
G1 F2100 E57.89257
G1 F1800 X109.347 Y40.948 E57.93182
G1 F2100 E57.13182
G0 F3600 X112.014 Y40.948
G1 F2100 E57.93182
G1 F1800 X112.014 Y39.768 E57.97107
G1 F2100 E57.17107
G0 F3600 X114.681 Y39.768
G1 F2100 E57.97107
G1 F1800 X114.681 Y40.948 E58.01031
G1 F2100 E57.21031
G0 F3600 X117.348 Y40.948
G1 F2100 E58.01031
G1 F1800 X117.348 Y39.768 E58.04956
G1 F2100 E57.24956
G0 F3600 X120.015 Y39.768
G1 F2100 E58.04956
G1 F1800 X120.015 Y40.948 E58.08881
G1 F2100 E57.28881
G0 F3600 X122.682 Y40.948
G1 F2100 E58.08881
G1 F1800 X122.682 Y39.768 E58.12805
G1 F2100 E57.32805
G0 F3600 X125.349 Y39.768
G1 F2100 E58.12805
G1 F1800 X125.349 Y40.948 E58.1673
G1 F2100 E57.3673
G0 F3600 X128.016 Y40.948
G1 F2100 E58.1673
G1 F1800 X128.016 Y39.768 E58.20655
G1 F2100 E57.40655
G0 F3600 X130.683 Y39.768
G1 F2100 E58.20655
G1 F1800 X130.683 Y40.948 E58.2458
G1 F2100 E57.4458
G0 F3600 X133.35 Y40.948
G1 F2100 E58.2458
G1 F1800 X133.35 Y39.768 E58.28504
G1 F2100 E57.48504
G0 F3600 X136.017 Y39.768
G1 F2100 E58.28504
G1 F1800 X136.017 Y40.948 E58.32429
G1 F2100 E57.52429
G0 F3600 X138.684 Y40.948
G1 F2100 E58.32429
G1 F1800 X138.684 Y39.768 E58.36354
G1 F2100 E57.56354
G0 F3600 X141.351 Y39.768
G1 F2100 E58.36354
G1 F1800 X141.351 Y40.948 E58.40278
G1 F2100 E57.60278
G0 F3600 X144.018 Y40.948
G1 F2100 E58.40278
G1 F1800 X144.018 Y39.768 E58.44203
G1 F2100 E57.64203
G0 F3600 X146.685 Y39.768
G1 F2100 E58.44203
G1 F1800 X146.685 Y40.948 E58.48128
G1 F2100 E57.68128
G0 F3600 X149.352 Y40.948
G1 F2100 E58.48128
G1 F1800 X149.352 Y39.768 E58.52052
G1 F2100 E57.72052
;MESH:Plate X3.stl
G0 F3600 X149.352 Y42.543
G0 X149.352 Y43.638
G0 X152.373 Y75.603
G0 X152.652 Y75.88
;TYPE:WALL-INNER
G1 F2100 E58.52052
G1 F1800 X152.652 Y43.808 E59.58724
G1 X85.852 Y43.808 E61.80902
G1 X85.852 Y75.88 E62.87574
G1 X152.652 Y75.88 E65.09752
G0 F3600 X152.373 Y75.603
G0 X120.587 Y64.779
G0 X120.538 Y64.475
G1 F1800 X119.512 Y64.636 E65.13206
G1 X118.474 Y64.581 E65.16663
G1 X117.473 Y64.302 E65.20119
G1 X116.559 Y63.817 E65.23561
G1 X115.763 Y63.15 E65.27015
G1 X115.151 Y62.338 E65.30397
G1 X114.708 Y61.391 E65.33874
G1 X114.561 Y60.868 E65.35681
G1 X114.452 Y59.877 E65.38997
G1 X114.482 Y59.299 E65.40922
G1 X114.698 Y58.328 E65.44231
G1 X114.906 Y57.809 E65.4609
G1 X115.429 Y56.942 E65.49458
G1 X116.141 Y56.188 E65.52907
G1 X117.001 Y55.602 E65.56368
G1 X117.968 Y55.217 E65.5983
G1 X118.992 Y55.052 E65.6328
G1 X120.029 Y55.107 E65.66734
G1 X121.034 Y55.382 E65.70199
G1 X121.942 Y55.871 E65.7363
G1 X122.741 Y56.544 E65.77104
G1 X123.353 Y57.35 E65.8047
G1 X123.801 Y58.302 E65.8397
G1 X124.022 Y59.299 E65.87366
G1 X124.028 Y60.363 E65.90905
G1 X123.795 Y61.391 E65.94411
G1 X123.36 Y62.332 E65.97859
G1 X122.748 Y63.132 E66.01209
G1 X122.349 Y63.512 E66.03042
G1 X121.503 Y64.082 E66.06435
G1 X120.538 Y64.475 E66.099
G0 F3600 X120.408 Y64.09
;TYPE:WALL-OUTER
G1 F1800 X119.469 Y64.236 E66.13061
G1 X118.537 Y64.185 E66.16165
G1 X117.621 Y63.93 E66.19328
G1 X116.783 Y63.486 E66.22482
G1 X116.054 Y62.87 E66.25656
G1 X115.487 Y62.121 E66.28781
G1 X115.09 Y61.269 E66.31907
G1 X114.952 Y60.783 E66.33588
G1 X114.852 Y59.855 E66.36692
G1 X114.876 Y59.371 E66.38304
G1 X115.08 Y58.445 E66.41457
G1 X115.264 Y57.987 E66.43099
G1 X115.762 Y57.166 E66.46293
G1 X116.419 Y56.478 E66.49457
G1 X117.189 Y55.955 E66.52553
G1 X118.074 Y55.603 E66.55721
G1 X119.035 Y55.452 E66.58956
G1 X119.967 Y55.503 E66.62061
G1 X120.887 Y55.758 E66.65236
G1 X121.733 Y56.214 E66.68432
G1 X122.45 Y56.818 E66.71551
G1 X123.017 Y57.567 E66.74675
G1 X123.42 Y58.433 E66.77852
G1 X123.624 Y59.344 E66.80957
G1 X123.628 Y60.317 E66.84193
G1 X123.42 Y61.251 E66.87376
G1 X123.024 Y62.109 E66.90519
G1 X122.45 Y62.866 E66.93679
G1 X122.098 Y63.2 E66.95293
G1 X121.315 Y63.729 E66.98435
G1 X120.408 Y64.09 E67.01682
G0 F3600 X120.211 Y64.12
G0 X120.326 Y64.822
G0 X152.773 Y76.003
G0 X153.052 Y76.28
G1 F1800 X153.052 Y43.408 E68.11015
G1 X85.452 Y43.408 E70.35854
G1 X85.452 Y76.28 E71.45186
G1 X153.052 Y76.28 E73.70025
G0 F3600 X153.052 Y76.08
G0 X152.373 Y75.603
G0 X120.638 Y64.833
;TYPE:SKIN
G1 F1800 X121.678 Y64.417 E73.7375
G1 X122.576 Y63.814 E73.77348
G1 X123.04 Y63.374 E73.79475
G1 X123.676 Y62.536 E73.82974
G1 X124.16 Y61.506 E73.86759
G1 X124.408 Y60.393 E73.90552
G1 X124.404 Y59.271 E73.94283
G1 X124.164 Y58.194 E73.97953
G1 X123.688 Y57.161 E74.01736
G1 X123.018 Y56.274 E74.05434
G1 X122.135 Y55.543 E74.09246
G1 X121.199 Y55.043 E74.12776
G1 X120.103 Y54.731 E74.16566
G1 X118.995 Y54.672 E74.20256
G1 X117.867 Y54.847 E74.24053
G1 X116.813 Y55.263 E74.27822
G1 X115.893 Y55.896 E74.31536
G1 X115.124 Y56.71 E74.3526
G1 X114.565 Y57.623 E74.38821
G1 X114.32 Y58.261 E74.41094
G1 X114.104 Y59.232 E74.44403
G1 X114.072 Y59.855 E74.46478
G1 X114.186 Y60.932 E74.5008
G1 X114.348 Y61.521 E74.52111
G1 X114.802 Y62.505 E74.55716
G1 X115.482 Y63.41 E74.59481
G1 X116.339 Y64.13 E74.63204
G1 X117.329 Y64.654 E74.66929
G1 X118.397 Y64.953 E74.70618
G1 X119.509 Y65.012 E74.74322
G1 X120.638 Y64.833 E74.78124
G0 F3600 X152.272 Y75.5
G1 F1800 X86.232 Y75.5 E76.97774
G1 X86.233 Y44.189 E78.01914
G1 X152.272 Y44.188 E80.21561
G1 X152.272 Y75.5 E81.25705
G0 F3600 X151.869 Y44.389
G1 F1800 X152.072 Y44.592 E81.2666
G0 F3600 X152.072 Y45.157
G1 F1800 X151.303 Y44.389 E81.30275
G0 F3600 X150.737 Y44.389
G1 F1800 X152.072 Y45.723 E81.36552
G0 F3600 X152.072 Y46.289
G1 F1800 X150.172 Y44.389 E81.45489
G0 F3600 X149.606 Y44.389
G1 F1800 X152.072 Y46.854 E81.57086
G0 F3600 X152.072 Y47.42
G1 F1800 X149.04 Y44.389 E81.71345
G0 F3600 X148.475 Y44.389
G1 F1800 X152.072 Y47.986 E81.88264
G0 F3600 X152.072 Y48.551
G1 F1800 X147.909 Y44.389 E82.07843
G0 F3600 X147.343 Y44.389
G1 F1800 X152.072 Y49.117 E82.30085
G0 F3600 X152.072 Y49.683
G1 F1800 X146.778 Y44.389 E82.54986
G0 F3600 X146.212 Y44.389
G1 F1800 X152.072 Y50.248 E82.82547
G0 F3600 X152.072 Y50.814
G1 F1800 X145.646 Y44.389 E83.12771
G0 F3600 X145.081 Y44.389
